X:245
T:Away Hay (2)
M:6/8
L:1/8
Q:1/4=3D115
K:A
E|\
A3-A2z|B3-B2z|B3  Bdc|B3-B2z|
A3-A2z|A3-A2z|c3  BAB|A3-A2z|
A3-A2z|G3-G2z|d3  dBc|B3-B2z|
e3-e2z|d3-d2z|ced Bdc|A3-A2 ||
